optimized/20/solid/squares-2x2.svg

<svg xmlns="http://www.w3.org/2000/svg" viewBox="0 0 20 20">
  <path fill-rule="evenodd" d="M4.25 2C3.00736 2 2 3.00736 2 4.25V6.75C2 7.99264 3.00736 9 4.25 9H6.75C7.99264 9 9 7.99264 9 6.75V4.25C9 3.00736 7.99264 2 6.75 2H4.25ZM4.25 11C3.00736 11 2 12.0074 2 13.25V15.75C2 16.9926 3.00736 18 4.25 18H6.75C7.99264 18 9 16.9926 9 15.75V13.25C9 12.0074 7.99264 11 6.75 11H4.25ZM13.25 2C12.0074 2 11 3.00736 11 4.25V6.75C11 7.99264 12.0074 9 13.25 9H15.75C16.9926 9 18 7.99264 18 6.75V4.25C18 3.00736 16.9926 2 15.75 2H13.25ZM13.25 11C12.0074 11 11 12.0074 11 13.25V15.75C11 16.9926 12.0074 18 13.25 18H15.75C16.9926 18 18 16.9926 18 15.75V13.25C18 12.0074 16.9926 11 15.75 11H13.25Z" clip-rule="evenodd"/>
</svg>

<svg xmlns="http://www.w3.org/2000/svg" viewBox="0 0 20 20" fill="currentColor" aria-hidden="true">
  <path fill-rule="evenodd" d="M4.25 2A2.25 2.25 0 002 4.25v2.5A2.25 2.25 0 004.25 9h2.5A2.25 2.25 0 009 6.75v-2.5A2.25 2.25 0 006.75 2h-2.5zm0 9A2.25 2.25 0 002 13.25v2.5A2.25 2.25 0 004.25 18h2.5A2.25 2.25 0 009 15.75v-2.5A2.25 2.25 0 006.75 11h-2.5zm9-9A2.25 2.25 0 0011 4.25v2.5A2.25 2.25 0 0013.25 9h2.5A2.25 2.25 0 0018 6.75v-2.5A2.25 2.25 0 0015.75 2h-2.5zm0 9A2.25 2.25 0 0011 13.25v2.5A2.25 2.25 0 0013.25 18h2.5A2.25 2.25 0 0018 15.75v-2.5A2.25 2.25 0 0015.75 11h-2.5z" clip-rule="evenodd"/>
</svg>
